overrides/.icons/class/phb24-artificer.svg

<?xml version="1.0" encoding="UTF-8" standalone="no"?>
<svg
   version="1.0"
   viewBox="0 0 24 24"
   preserveAspectRatio="xMidYMid"
   id="svg1"
   sodipodi:docname="phb24-artificer.svg"
   xml:space="preserve"
   inkscape:version="1.3.2 (091e20e, 2023-11-25, custom)"
   xmlns:inkscape="http://www.inkscape.org/namespaces/inkscape"
   xmlns:sodipodi="http://sodipodi.sourceforge.net/DTD/sodipodi-0.dtd"
   xmlns="http://www.w3.org/2000/svg"
   xmlns:svg="http://www.w3.org/2000/svg"><defs
     id="defs1" /><sodipodi:namedview
     id="namedview1"
     pagecolor="#ffffff"
     bordercolor="#111111"
     borderopacity="1"
     inkscape:showpageshadow="0"
     inkscape:pageopacity="0"
     inkscape:pagecheckerboard="1"
     inkscape:deskcolor="#d1d1d1"
     inkscape:document-units="px"
     inkscape:zoom="10.38"
     inkscape:cx="8.4296723"
     inkscape:cy="6.5992292"
     inkscape:window-width="1366"
     inkscape:window-height="697"
     inkscape:window-x="-8"
     inkscape:window-y="-8"
     inkscape:window-maximized="1"
     inkscape:current-layer="svg1" /><g
     transform="matrix(0.1,0,0,-0.1,0,300)"
     fill="#000000"
     stroke="none"
     id="g1" /><path
     id="path1"
     style="stroke-width:0.999999"
     d="M 12 1.75 C 10.622222 1.75 10.50544 1.7560471 10.378906 1.8417969 C 10.16479 1.9869195 10.092038 2.1862418 10.048828 2.7460938 C 9.9822393 3.608958 9.7450902 4.1811596 9.1933594 4.8027344 C 8.4703928 5.6172248 8.0157876 6.3268064 7.6914062 7.1523438 C 7.5188956 7.5913788 7.2971831 8.4715433 7.2519531 8.8984375 L 7.2167969 9.2324219 L 7.9316406 9.9472656 L 8.6152344 10.632812 C 8.437369 11.070631 8.3425313 11.550427 8.3496094 12.050781 C 8.3537916 12.346428 8.3938824 12.633386 8.4648438 12.908203 L 7.9746094 13.029297 L 7.4492188 13.158203 L 7.3652344 13.052734 C 7.1013838 12.715959 6.6904314 11.812449 6.5273438 11.208984 C 6.0657476 9.5009638 6.3774925 7.6063688 7.3515625 6.1835938 C 7.5797301 5.8503034 7.5736206 5.8351496 7.2539062 5.9121094 C 6.942052 5.9871772 6.2162246 5.9741186 5.8320312 5.8867188 C 5.6383786 5.8426648 5.2702174 5.698209 5.0136719 5.5664062 C 4.7337871 5.4226176 4.4826676 5.328125 4.3867188 5.328125 C 4.0808943 5.328125 3.9509598 5.4826635 3.1835938 6.7636719 C 2.4759809 7.9449335 2.4552944 7.987972 2.4746094 8.2128906 C 2.4984072 8.490087 2.5590685 8.5624825 3.046875 8.9042969 C 3.7542177 9.3999459 4.1692977 9.9829388 4.4316406 10.847656 C 4.8814169 12.330181 5.758646 13.616848 6.9023438 14.474609 L 7.1816406 14.685547 L 8.1542969 14.441406 L 9.0976562 14.207031 C 9.5753516 14.832914 10.249355 15.299355 11.025391 15.515625 C 11.025611 15.516582 11.027344 15.518646 11.027344 15.519531 C 11.027259 15.652487 10.767007 16.501053 10.716797 16.533203 C 10.634344 16.585953 9.8930549 16.578311 9.4199219 16.519531 C 7.3639219 16.264099 5.5855785 15.021956 4.6601562 13.191406 L 4.4648438 12.802734 L 4.40625 13.019531 C 4.3742007 13.138794 4.2675427 13.400783 4.1699219 13.601562 C 3.9556653 14.042231 3.3229656 14.714297 2.8789062 14.970703 C 2.5153556 15.180624 2.3867188 15.347458 2.3867188 15.613281 C 2.3867188 15.784975 2.4917419 16.003786 3.0605469 17.009766 C 3.4313369 17.665539 3.7801415 18.251972 3.8359375 18.3125 C 3.9724722 18.460678 4.2598966 18.534557 4.4394531 18.46875 C 4.5156808 18.440794 4.7305726 18.34261 4.9179688 18.25 C 5.3304057 18.046171 5.7204012 17.940104 6.2070312 17.902344 C 6.5606856 17.874898 6.7280262 17.894744 7.4492188 18.052734 C 8.834309 18.356166 10.419867 18.192088 11.755859 17.605469 L 11.976562 17.509766 L 12.164062 16.808594 C 12.267623 16.42354 12.385761 15.986947 12.425781 15.837891 L 12.484375 15.617188 C 13.304046 15.507375 14.038691 15.12438 14.59375 14.5625 L 14.945312 14.916016 C 15.380933 15.35421 15.378021 15.321726 15.019531 15.935547 C 14.25526 17.244162 12.972177 18.251075 11.488281 18.707031 C 10.833996 18.908075 10.442018 18.964097 9.6777344 18.966797 L 9.0332031 18.96875 L 9.2988281 19.287109 C 9.7887731 19.877378 10.020088 20.484046 10.080078 21.328125 C 10.098678 21.589943 10.142494 21.860038 10.177734 21.929688 C 10.250892 22.074257 10.419356 22.197582 10.591797 22.232422 C 10.656759 22.245512 11.334691 22.251947 12.097656 22.248047 C 13.372913 22.241437 13.495754 22.233386 13.621094 22.148438 C 13.835209 22.003316 13.907962 21.805944 13.951172 21.246094 C 14.021552 20.33412 14.244852 19.82908 14.927734 19.046875 C 15.702199 18.159769 16.162025 17.35958 16.472656 16.351562 C 16.619523 15.874974 16.769531 15.125982 16.769531 14.875 C 16.769531 14.776582 16.611754 14.587284 16.0625 14.037109 L 15.384766 13.359375 C 15.554936 12.93853 15.650391 12.480047 15.650391 12 L 15.650391 11.996094 L 15.650391 11.992188 L 15.648438 11.900391 L 15.648438 11.896484 C 15.641217 11.641111 15.608061 11.391854 15.550781 11.152344 C 15.550635 11.15173 15.550928 11.151004 15.550781 11.150391 C 15.590947 11.073472 15.770276 11.027617 16.462891 10.853516 C 16.551076 10.831348 16.596536 10.87477 16.740234 11.111328 C 17.334175 12.089057 17.622541 13.019648 17.675781 14.136719 C 17.736782 15.416595 17.357426 16.77391 16.650391 17.806641 C 16.420342 18.142672 16.426245 18.157498 16.746094 18.080078 C 16.853177 18.054148 17.160028 18.03225 17.427734 18.03125 C 18.031167 18.02899 18.484593 18.146566 19.041016 18.449219 C 19.495405 18.696376 19.693637 18.719294 19.929688 18.554688 C 20.037766 18.47932 20.314766 18.065936 20.816406 17.228516 C 21.52405 16.047254 21.544701 16.004216 21.525391 15.779297 C 21.501593 15.5021 21.440933 15.429706 20.953125 15.087891 C 20.505192 14.774018 20.098616 14.333106 19.886719 13.935547 C 19.800362 13.773527 19.642059 13.376256 19.537109 13.050781 C 19.295286 12.300835 18.958701 11.605409 18.564453 11.048828 C 18.215645 10.556401 17.516641 9.8269634 17.097656 9.515625 L 16.818359 9.3066406 L 15.837891 9.5527344 L 14.898438 9.7871094 C 14.422912 9.1662634 13.754655 8.7034001 12.986328 8.4863281 C 12.981661 8.481047 12.972654 8.4743581 12.972656 8.4707031 C 12.972742 8.3386075 13.233243 7.4890212 13.283203 7.4570312 C 13.365656 7.4042814 14.106946 7.4138764 14.580078 7.4726562 C 16.638216 7.7283578 18.413461 8.9683268 19.339844 10.800781 L 19.535156 11.1875 L 19.59375 10.970703 C 19.790997 10.232203 20.371344 9.4846032 21.087891 9.046875 C 21.49235 8.7997944 21.613308 8.6472858 21.613281 8.3789062 C 21.613264 8.2074506 21.508429 7.9881649 20.939453 6.9824219 C 20.568401 6.3265381 20.217639 5.7402273 20.162109 5.6796875 C 20.026304 5.5317017 19.740183 5.4575677 19.560547 5.5234375 C 19.484319 5.5513935 19.269427 5.6495777 19.082031 5.7421875 C 18.340203 6.1087977 17.677326 6.180134 16.769531 5.9882812 C 15.108512 5.637241 13.662046 5.764131 12.244141 6.3867188 L 12.023438 6.4824219 L 11.835938 7.1835938 C 11.732376 7.568645 11.614239 8.0052381 11.574219 8.1542969 L 11.513672 8.3828125 C 10.695621 8.4926738 9.9635651 8.8749487 9.4101562 9.4335938 L 9.0546875 9.0742188 C 8.6190673 8.6360236 8.6219804 8.6704604 8.9804688 8.0566406 C 9.7443872 6.7486332 11.030008 5.7398504 12.511719 5.2851562 C 13.168129 5.0837228 13.559385 5.0272928 14.324219 5.0273438 L 14.970703 5.0273438 L 14.703125 4.7070312 C 14.210949 4.1140784 13.979992 3.5093409 13.919922 2.6640625 C 13.882595 2.1387855 13.82453 1.9796755 13.621094 1.8417969 C 13.494558 1.7559871 13.377777 1.75 12 1.75 z M 11.947266 9.5507812 C 13.300518 9.5220643 14.410931 10.578624 14.449219 11.931641 L 14.451172 12 C 14.451172 13.353558 13.371103 14.441599 12.017578 14.451172 C 10.664054 14.460772 9.5679738 13.388579 9.5488281 12.035156 C 9.5296821 10.681734 10.594013 9.5794985 11.947266 9.5507812 z M 12 10.367188 C 11.450266 10.367188 11.185536 10.470714 10.830078 10.826172 C 10.530592 11.125657 10.384339 11.449411 10.355469 11.880859 C 10.304001 12.649858 10.735706 13.307588 11.464844 13.572266 C 11.783548 13.687964 12.385758 13.653885 12.705078 13.501953 C 13.013689 13.355116 13.356002 13.014652 13.509766 12.701172 C 13.611016 12.494729 13.628906 12.388334 13.628906 11.996094 C 13.628906 11.446358 13.525379 11.181628 13.169922 10.826172 C 12.814464 10.470706 12.549732 10.367187 12 10.367188 z " /><path
     id="path2"
     style="stroke-width:10;stroke-linecap:square;stroke-dashoffset:7.00004;paint-order:fill markers stroke"
     d="m 13.781385,12 a 1.7813847,1.7813847 0 0 1 -1.768786,1.78134 1.7813847,1.7813847 0 0 1 -1.793805,-1.756143 1.7813847,1.7813847 0 0 1 1.743412,-1.806181 1.7813847,1.7813847 0 0 1 1.818466,1.730595 z" /></svg>

<?xml version="1.0" encoding="UTF-8"?>
<svg id="svg1" preserveAspectRatio="xMidYMid" version="1.0" viewBox="0 0 24 24" xml:space="preserve" xmlns="http://www.w3.org/2000/svg"><path id="path1" d="m12 1.75c-1.3778 0-1.4946 0.0060471-1.6211 0.091797-0.21412 0.14512-0.28687 0.34444-0.33008 0.9043-0.066589 0.86286-0.30374 1.4351-0.85547 2.0566-0.72297 0.81449-1.1776 1.5241-1.502 2.3496-0.17251 0.43904-0.39422 1.3192-0.43945 1.7461l-0.035156 0.33398 0.71484 0.71484 0.68359 0.68555c-0.17787 0.43782-0.2727 0.91762-0.26562 1.418 0.0041822 0.29565 0.044273 0.5826 0.11523 0.85742l-0.49023 0.12109-0.52539 0.12891-0.083984-0.10547c-0.26385-0.33678-0.6748-1.2403-0.83789-1.8438-0.4616-1.708-0.14985-3.6026 0.82422-5.0254 0.22817-0.33329 0.22206-0.34844-0.097656-0.27148-0.31185 0.075068-1.0377 0.062009-1.4219-0.025391-0.19365-0.044054-0.56181-0.18851-0.81836-0.32031-0.27988-0.14379-0.531-0.23828-0.62695-0.23828-0.30582 0-0.43576 0.15454-1.2031 1.4355-0.70761 1.1813-0.7283 1.2243-0.70898 1.4492 0.023798 0.2772 0.084459 0.34959 0.57227 0.69141 0.70734 0.49565 1.1224 1.0786 1.3848 1.9434 0.44978 1.4825 1.327 2.7692 2.4707 3.627l0.2793 0.21094 0.97266-0.24414 0.94336-0.23438c0.4777 0.62588 1.1517 1.0923 1.9277 1.3086 2.2e-4 9.57e-4 0.001953 0.003021 0.001953 0.003906-8.5e-5 0.13296-0.26034 0.98152-0.31055 1.0137-0.082453 0.05275-0.82374 0.045108-1.2969-0.013672-2.056-0.25543-3.8343-1.4976-4.7598-3.3281l-0.19531-0.38867-0.058594 0.2168c-0.032049 0.11926-0.13871 0.38125-0.23633 0.58203-0.21426 0.44067-0.84696 1.1127-1.291 1.3691-0.36355 0.20992-0.49219 0.37676-0.49219 0.64258 0 0.17169 0.10502 0.3905 0.67383 1.3965 0.37079 0.65577 0.71959 1.2422 0.77539 1.3027 0.13653 0.14818 0.42396 0.22206 0.60352 0.15625 0.076228-0.027956 0.29112-0.12614 0.47852-0.21875 0.41244-0.20383 0.80243-0.3099 1.2891-0.34766 0.35365-0.027446 0.521-0.0076 1.2422 0.15039 1.3851 0.30343 2.9706 0.13935 4.3066-0.44726l0.2207-0.095703 0.1875-0.70117c0.10356-0.38505 0.2217-0.82165 0.26172-0.9707l0.058594-0.2207c0.81967-0.10981 1.5543-0.49281 2.1094-1.0547l0.35156 0.35352c0.43562 0.43819 0.43271 0.40571 0.074219 1.0195-0.76427 1.3086-2.0474 2.3155-3.5312 2.7715-0.65428 0.20104-1.0463 0.25707-1.8105 0.25977l-0.64453 0.001953 0.26562 0.31836c0.48994 0.59027 0.72126 1.1969 0.78125 2.041 0.0186 0.26182 0.062416 0.53191 0.097656 0.60156 0.073158 0.14457 0.24162 0.26789 0.41406 0.30273 0.064962 0.01309 0.74289 0.019525 1.5059 0.015625 1.2753-0.00661 1.3981-0.014661 1.5234-0.099609 0.21412-0.14512 0.28687-0.34249 0.33008-0.90234 0.07038-0.91197 0.29368-1.417 0.97656-2.1992 0.77446-0.88711 1.2343-1.6873 1.5449-2.6953 0.14687-0.47659 0.29688-1.2256 0.29688-1.4766 0-0.098418-0.15778-0.28772-0.70703-0.83789l-0.67773-0.67773c0.17017-0.42084 0.26562-0.87933 0.26562-1.3594v-0.003906-0.003906l-0.001953-0.091797v-0.003907c-0.007221-0.25537-0.040377-0.50463-0.097657-0.74414-1.46e-4 -6.14e-4 1.47e-4 -0.00134 0-0.001953 0.040166-0.076919 0.2195-0.12277 0.91211-0.29688 0.088185-0.022168 0.13364 0.021254 0.27734 0.25781 0.59394 0.97773 0.88231 1.9083 0.93555 3.0254 0.061001 1.2799-0.31836 2.6372-1.0254 3.6699-0.23005 0.33603-0.22415 0.35086 0.095703 0.27344 0.10708-0.02593 0.41393-0.047828 0.68164-0.048828 0.60343-0.00226 1.0569 0.11532 1.6133 0.41797 0.45439 0.24716 0.65262 0.27008 0.88867 0.10547 0.10808-0.075368 0.38508-0.48875 0.88672-1.3262 0.70764-1.1813 0.7283-1.2243 0.70898-1.4492-0.023798-0.2772-0.084458-0.34959-0.57227-0.69141-0.44793-0.31387-0.85451-0.75478-1.0664-1.1523-0.086357-0.16202-0.24466-0.55929-0.34961-0.88477-0.24182-0.74995-0.57841-1.4454-0.97266-2.002-0.34881-0.49243-1.0478-1.2219-1.4668-1.5332l-0.2793-0.20898-0.98047 0.24609-0.93945 0.23438c-0.47553-0.62085-1.1438-1.0837-1.9121-1.3008-0.004667-0.0052811-0.013674-0.01197-0.013672-0.015625 8.6e-5 -0.1321 0.26059-0.98168 0.31055-1.0137 0.082453-0.05275 0.82374-0.043155 1.2969 0.015625 2.0581 0.2557 3.8334 1.4957 4.7598 3.3281l0.19531 0.38672 0.058594-0.2168c0.19725-0.7385 0.77759-1.4861 1.4941-1.9238 0.40446-0.24708 0.52542-0.39959 0.52539-0.66797-1.7e-5 -0.17146-0.10485-0.39074-0.67383-1.3965-0.37105-0.65588-0.72181-1.2422-0.77734-1.3027-0.1358-0.14799-0.42193-0.22212-0.60156-0.15625-0.076228 0.027956-0.29112 0.12614-0.47852 0.21875-0.74183 0.36661-1.4047 0.43795-2.3125 0.24609-1.661-0.35104-3.1075-0.22415-4.5254 0.39844l-0.2207 0.095703-0.1875 0.70117c-0.10356 0.38505-0.2217 0.82164-0.26172 0.9707l-0.060547 0.22852c-0.81805 0.10986-1.5501 0.49214-2.1035 1.0508l-0.35547-0.35938c-0.43562-0.4382-0.43271-0.40376-0.074219-1.0176 0.76392-1.308 2.0495-2.3168 3.5313-2.7715 0.65641-0.20143 1.0477-0.25786 1.8125-0.25781h0.64648l-0.26758-0.32031c-0.49218-0.59295-0.72313-1.1977-0.7832-2.043-0.037327-0.52528-0.095392-0.68439-0.29883-0.82227-0.12654-0.08581-0.24332-0.091797-1.6211-0.091797zm-0.052734 7.8008c1.3533-0.028717 2.4637 1.0278 2.502 2.3809l0.001953 0.068359c0 1.3536-1.0801 2.4416-2.4336 2.4512-1.3535 0.0096-2.4496-1.0626-2.4687-2.416-0.019146-1.3534 1.0452-2.4557 2.3984-2.4844zm0.052734 0.81641c-0.54973 0-0.81446 0.10353-1.1699 0.45898-0.29949 0.29948-0.44574 0.62324-0.47461 1.0547-0.051468 0.769 0.38024 1.4267 1.1094 1.6914 0.3187 0.1157 0.92091 0.081619 1.2402-0.070313 0.30861-0.14684 0.65092-0.4873 0.80469-0.80078 0.10125-0.20644 0.11914-0.31284 0.11914-0.70508 0-0.54974-0.10353-0.81447-0.45898-1.1699-0.35546-0.35547-0.62019-0.45898-1.1699-0.45898z"/><path id="path2" d="m13.781 12a1.7814 1.7814 0 0 1-1.7688 1.7813 1.7814 1.7814 0 0 1-1.7938-1.7561 1.7814 1.7814 0 0 1 1.7434-1.8062 1.7814 1.7814 0 0 1 1.8185 1.7306z" stroke-dashoffset="7" stroke-linecap="square" stroke-width="10" style="paint-order:fill markers stroke"/></svg>
